libs/icons/src/svg/reset-password.svg

<svg width="16" height="16" viewBox="0 0 16 16" fill="none" xmlns="http://www.w3.org/2000/svg">
<g clip-path="url(#clip0_3_3756)">
<path fill-rule="evenodd" clip-rule="evenodd" d="M8.69947 2.00001C7.2191 2.00001 5.86576 2.54119 4.82223 3.43899C4.54312 3.67911 4.12219 3.64752 3.88206 3.36841C3.64193 3.0893 3.67353 2.66837 3.95264 2.42824C5.22836 1.33068 6.88738 0.666672 8.69947 0.666672C12.7346 0.666672 16 3.95302 16 8.00001C16 12.047 12.7346 15.3333 8.69947 15.3333C4.91345 15.3333 1.80496 12.4402 1.43564 8.74013L1.20748 9.05657C0.992142 9.35523 0.575471 9.42277 0.276817 9.20743C-0.0218375 8.9921 -0.089381 8.57543 0.125954 8.27677L1.69585 6.09944C1.8229 5.92323 2.02784 5.81997 2.24507 5.82273C2.46229 5.82549 2.66455 5.93391 2.78709 6.11329L4.27452 8.29062C4.48221 8.59464 4.40412 9.00946 4.1001 9.21715C3.79608 9.42484 3.38126 9.34675 3.17357 9.04273L2.74645 8.4175C2.9597 11.5391 5.54627 14 8.69947 14C11.992 14 14.6667 11.3168 14.6667 8.00001C14.6667 4.6832 11.992 2.00001 8.69947 2.00001Z" fill="#202327"/>
<path fill-rule="evenodd" clip-rule="evenodd" d="M6 8.09008C6 7.3537 6.59695 6.75674 7.33333 6.75674L10.6667 6.75674C11.403 6.75674 12 7.3537 12 8.09008L12 9.99999C12 10.7364 11.403 11.3333 10.6667 11.3333L7.33333 11.3333C6.59695 11.3333 6 10.7364 6 9.99999L6 8.09008ZM10.6667 8.09008L7.33333 8.09008L7.33333 9.99999L10.6667 9.99999L10.6667 8.09008Z" fill="#202327"/>
<path fill-rule="evenodd" clip-rule="evenodd" d="M9.0389 5.33334C8.87408 5.33419 8.72945 5.39349 8.6335 5.47894C8.53999 5.56221 8.50424 5.65751 8.50374 5.73839L8.50374 8.00901L7.17041 8.00901L7.17041 5.7347C7.17204 5.24856 7.39022 4.80073 7.74676 4.48321C8.10083 4.1679 8.56577 4.00125 9.03713 4L9.0389 4.66666L9.04067 4C9.51202 4.00125 9.97697 4.1679 10.331 4.48321C10.6876 4.80073 10.9058 5.24856 10.9074 5.7347L10.9074 5.73693L10.9074 8.00901L9.57405 8.00901L9.57405 5.73837C9.57355 5.6575 9.5378 5.56221 9.4443 5.47894C9.34835 5.39349 9.20371 5.33419 9.0389 5.33334Z" fill="#202327"/>
</g>
<defs>
<clipPath id="clip0_3_3756">
<rect width="16" height="16" fill="white" transform="matrix(1 -8.74228e-08 -8.74228e-08 -1 0 16)"/>
</clipPath>
</defs>
</svg>

<svg xmlns="http://www.w3.org/2000/svg" viewBox="0 0 16 16" class="sageicon"><path fill-rule="evenodd" d="M8.7 2c-1.48 0-2.834.541-3.878 1.439a.667.667 0 0 1-.87-1.01A7.255 7.255 0 0 1 8.7.666C12.735.667 16 3.953 16 8c0 4.047-3.265 7.333-7.3 7.333-3.787 0-6.895-2.893-7.264-6.593l-.229.317a.667.667 0 0 1-1.081-.78l1.57-2.178a.667.667 0 0 1 1.091.014l1.488 2.178a.667.667 0 1 1-1.101.752l-.428-.626C2.96 11.54 5.546 14 8.7 14c3.293 0 5.968-2.683 5.968-6s-2.675-6-5.968-6Z"/><path fill-rule="evenodd" d="M6 8.09c0-.736.597-1.333 1.333-1.333h3.334c.736 0 1.333.597 1.333 1.333V10c0 .736-.597 1.333-1.333 1.333H7.333A1.333 1.333 0 0 1 6 10V8.09Zm4.667 0H7.333V10h3.334V8.09Z"/><path fill-rule="evenodd" d="M9.039 5.333c-.165.001-.31.06-.405.146a.353.353 0 0 0-.13.26v2.27H7.17V5.735c.002-.486.22-.934.577-1.252A1.95 1.95 0 0 1 9.037 4l.002.667L9.041 4a1.95 1.95 0 0 1 1.29.483c.357.318.575.766.576 1.252V8.009H9.574v-2.27a.353.353 0 0 0-.13-.26.618.618 0 0 0-.405-.146Z"/></svg>
